X: 1
T: An Asal Cam
M: 6/8
L: 1/8
R: jig
K: Dmaj
||:B| ADD ADD | Ade f/2e/2dc | BEE BEE | c/2d/2ed c/2d/2eg |
fBB fBB | fef dag | fae dAG | FAE D2 :||
|: f | afd gbe | fdc dAG | FAd dfg | afb afg |
 aff gee | fef dag | fae dAG | FAE D2 :||
